X:1
T:Blue Bells of Scotland
M:4/4
L:1/4
K:C
 G| c2 B A| G2 AB/2-c/2| E E F D| C3 G| c2 B A| G2 AB/2-c/2| E E F D|\
 C3 G| E C E G| c2 AB/2-c/2| B G A ^F| G2 A B| c2 B A| G2 A-B/2-c/2|\
 E E F B| C3||
